X: 10762
T: MISS NISBET OF DIRLETON'S REEL
C: Nathaniel Gow
%R: reel
B: W. Hamilton "Universal Tune-Book" Vol. 1 Glasgow 1844 p.76 #2
S: http://imslp.org/wiki/Hamilton's_Universal_Tune-Book_(Various)
Z: 2016 John Chambers <jc:trillian.mit.edu>
M: C|
L: 1/8
K: Amix
% - - - - - - - - - - - - - - - - - - - - - - - - -
e |\
A<Ae>=c BGGB | AAeA c>def |\
g>de=c BGGB | A<Ae>B cAA :|\
(^g |\
a)eeg BGG(^g | a)eef g>bag |
g>de>=c BGGB | A<Ae>B cAA^g |\
aee=g BGG(^g | a)eef gbaf |\
gde=c BdGB | Aaef cAA |]
% - - - - - - - - - - - - - - - - - - - - - - - - -

%%sep 1 1 500
%%sep 1 1 500

